packages/foundations/assets/icons/functional/images/file/document_24.svg

<svg width="24" height="24" viewBox="0 0 24 24" fill="none" xmlns="http://www.w3.org/2000/svg">
<g clip-path="url(#clip0_2207_3230)">
<path fill-rule="evenodd" clip-rule="evenodd" d="M14 2C14.2812 2 14.5312 2.09375 14.7188 2.3125L18.7188 6.3125C18.9062 6.5 19 6.71875 19 7V21C19 21.5625 18.5625 22 18 22H6C5.4375 22 5 21.5625 5 21V3C5 2.4375 5.4375 2 6 2H14ZM12 4H7V20H17V9H13C12.4375 9 12 8.53125 12 8V4ZM14 4.40625V7H16.5938L14 4.40625ZM14 16H10C9.4375 16 9 16.4375 9 17C9 17.5625 9.4375 18 10 18H14C14.5625 18 15 17.5625 15 17C15 16.4375 14.5625 16 14 16ZM14 12H10C9.4375 12 9 12.4375 9 13C9 13.5625 9.4375 14 10 14H14C14.5625 14 15 13.5625 15 13C15 12.4375 14.5625 12 14 12Z" fill="#1A1C1F"/>
</g>
<defs>
<clipPath id="clip0_2207_3230">
<rect width="24" height="24" fill="white"/>
</clipPath>
</defs>
</svg>

<svg xmlns="http://www.w3.org/2000/svg" width="24" height="24" fill="none"><g clip-path="url(#a)"><path fill="#1A1C1F" fill-rule="evenodd" d="M14 2c.281 0 .531.094.719.313l4 4A.92.92 0 0 1 19 7v14c0 .563-.437 1-1 1H6c-.562 0-1-.437-1-1V3c0-.562.438-1 1-1zm-2 2H7v16h10V9h-4c-.562 0-1-.469-1-1zm2 .406V7h2.594zM14 16h-4c-.562 0-1 .438-1 1s.438 1 1 1h4c.563 0 1-.437 1-1s-.437-1-1-1m0-4h-4c-.562 0-1 .438-1 1s.438 1 1 1h4c.563 0 1-.437 1-1s-.437-1-1-1" clip-rule="evenodd"/></g><defs><clipPath id="a"><path fill="#fff" d="M0 0h24v24H0z"/></clipPath></defs></svg>
